public/images/constellation-archives-home.svg

<svg fill="none" height="100" viewBox="0 0 136 100" width="136" xmlns="http://www.w3.org/2000/svg"><path d="m89.8146 80.2023c-1.2469-.8642-1.5148-2.5833-.6558-3.8378.859-1.2544 2.5678-1.5239 3.8147-.6597s1.5148 2.5833.6558 3.8377c-.9237 1.1894-2.6324 1.524-3.8147.6598z" fill="#204e62"/><path d="m57.5602 94.977c0 1.3939-1.1454 2.5461-2.5308 2.5461-1.3855 0-2.5309-1.1522-2.5309-2.5461 0-1.3938 1.1454-2.5461 2.5309-2.5461 1.3854 0 2.5308 1.1523 2.5308 2.5461z" fill="#204e62"/><path d="m107.743 54.6016c1.397 0 2.531-1.1399 2.531-2.5461s-1.134-2.5461-2.531-2.5461c-1.398 0-2.531 1.1399-2.531 2.5461s1.133 2.5461 2.531 2.5461z" fill="#204e62"/><path d="m59.0287 10.268c-.8129 1.1522-2.3738 1.3938-3.5192.6597-1.1453-.8177-1.3855-2.38811-.6558-3.54036.8129-1.15225 2.3738-1.39385 3.5192-.65976 1.1453.81773 1.3855 2.38814.6558 3.54042z" fill="#204e62"/><path d="m48.0463 46.3501c0 1.1336-.9236 2.0629-2.0505 2.0629-1.1268 0-2.0505-.9293-2.0505-2.0629 0-1.1337.9237-2.0629 2.0505-2.0629 1.1269 0 2.0505.9292 2.0505 2.0629z" fill="#204e62"/><path d="m126.133 89.8012-34.4711-11.8942-36.5491 17.3024-26.1118-26.5761 16.2841-21.9393 39.7264-39.13931-28.8273.82702" stroke="#204e62" stroke-miterlimit="10"/><path d="m134 46.6939-26.673 4.9435-62.0423-4.9435" stroke="#204e62" stroke-miterlimit="10"/><path d="m107.327 51.6375-15.6654 26.2695" stroke="#204e62" stroke-miterlimit="10"/><g fill="#0c8085"><path d="m93.047 43.5346c-.5265-.3624-.6374-1.078-.2771-1.6076.3602-.5297 1.0714-.6412 1.5979-.2788s.6373 1.0779.2771 1.6076c-.3879.5018-1.0992.6412-1.5979.2788z"/><path d="m72.6807 97.6439c0 1.1244-.9236 2.0536-2.0413 2.0536-1.1176 0-2.0413-.9292-2.0413-2.0536 0-1.1243.9237-2.0536 2.0413-2.0536 1.1177 0 2.0413.9293 2.0413 2.0536z"/><path d="m86.004 20.5913c-.5919.8391-1.7287 1.0151-2.5628.4805-.8342-.5956-1.0091-1.7392-.4776-2.5784.5919-.8391 1.7287-1.0151 2.5628-.4805.8342.5956 1.0696 1.7392.4776 2.5784z"/><path d="m60.3311 63.3644.5727 2.5461 2.5031-.6504-1.8842 1.7748 1.8103 1.8585-2.5031-.762-.6835 2.5089-.5819-2.5461-2.5308.6598 1.9212-1.7841-1.8104-1.8585 2.457.762z"/><path d="m21.4637 50.0021.5727 2.639 2.6693-.6505-2.0228 1.8771 1.912 1.9607-2.5955-.8085-.7574 2.6484-.6096-2.6855-2.6324.6876 1.9766-1.877-1.9027-1.9886 2.6324.7991z"/><path d="m65.5225 36.0734.582 2.5461 2.4938-.6504-1.8842 1.7841 1.8103 1.8492-2.4938-.762-.6928 2.5089-.5726-2.5461-2.5401.6598 1.9212-1.7841-1.8104-1.8585 2.4662.762z"/><path d="m103.799 73.8927c-.582-.3996-.712-1.2081-.305-1.7935.397-.5854 1.201-.7155 1.782-.3066.582.3996.712 1.208.305 1.7934-.434.5575-1.228.7155-1.782.3067z"/><path d="m27.4676 59.982c-.3603-.2509-.4342-.7434-.194-1.1151.2494-.3624.7389-.4367 1.1084-.1951.3602.2509.4341.7434.194 1.1151-.2679.3438-.7667.4367-1.1084.1951z"/><path d="m43.6775 94.3265c-.4803-.3345-.5819-.9943-.2494-1.4775.3326-.4832.9884-.5854 1.4687-.2509.4803.3346.5819.9943.2493 1.4775-.3509.4553-1.0067.5854-1.4686.2509z"/><path d="m62.0306 15.5554c-.3603-.2509-.4342-.7434-.194-1.1151.2494-.3624.7389-.4368 1.1084-.1952.3602.2509.4341.7434.1939 1.1151-.2678.3438-.7666.4368-1.1083.1952z"/><path d="m124.996 38.619c-.36-.2509-.434-.7434-.194-1.1151.25-.3624.739-.4368 1.109-.1952.36.2509.434.7434.194 1.1151-.268.3438-.767.4368-1.109.1952z"/><path d="m54.7147 88.8615c-.2977-.2055-.362-.6226-.1576-.9221.2043-.2996.6189-.3642.9166-.1586.2978.2056.362.6226.1577.9222-.2219.2878-.6306.3641-.9167.1585z"/><path d="m54.7147 88.8615c-.2977-.2055-.362-.6226-.1576-.9221.2043-.2996.6189-.3642.9166-.1586.2978.2056.362.6226.1577.9222-.2219.2878-.6306.3641-.9167.1585z"/><path d="m102.727 46.3687c-.249-.1672-.305-.511-.129-.7619.166-.2509.508-.3067.757-.1301.25.1672.305.5111.129.7619-.184.2416-.526.3067-.757.1301z"/><path d="m46.4947 52.6876c-.2494-.1673-.3049-.5111-.1294-.762.1663-.2509.5081-.3066.7574-.1301.2494.1673.3048.5111.1294.762-.1848.2416-.5265.3066-.7574.1301z"/><path d="m82.6099 75.8719c-.2494-.1672-.3048-.5111-.1293-.762.1662-.2509.508-.3066.7574-.13.2494.1672.3048.511.1293.7619-.1847.2416-.5265.3067-.7574.1301z"/><path d="m134.806 84.5231c-.25-.1673-.305-.5111-.13-.762.167-.2509.508-.3066.758-.1301.249.1673.305.5111.129.762-.185.2416-.526.3067-.757.1301z"/><path d="m36.3254 69.07c-.3603-.2416-.4342-.7341-.1848-1.0965.2402-.3624.7297-.4368 1.0899-.1859.3603.2416.4342.7341.1848 1.0965-.2587.3438-.7482.4368-1.0899.1859z"/><path d="m64.1826 11.7548c-.2493-.1673-.3048-.5111-.1293-.762.1663-.2509.508-.3066.7574-.1301.2494.1673.3048.5111.1293.762-.1847.2416-.5264.3066-.7574.1301z"/></g><path d="m79.6553 6.36711 4.7753-.74339-.8683-4.76697 3.0296 3.80057 3.63-3.08506-1.6903 4.46033 4.4798 1.62616-4.7754.73409.859 4.77626-3.0295-3.80056-3.63 3.08506 1.7642-4.47891z" fill="#ffa135"/><path d="m121.062 84.4023 3.916 2.2208 2.042-3.9213.092 4.4696 4.424-.1673-3.824 2.2395 2.3 3.7634-3.824-2.1465-2.124 3.9306-.009-4.4789-4.425.1673 3.824-2.2488z" fill="#ffa135"/><path d="m10.608 67.584c-.314-.2138-.3879-.6505-.1663-.9757.2125-.316.6466-.3903.9699-.1673.314.2137.3879.6505.1662.9757-.2309.2973-.665.3903-.9698.1673z" fill="#0c8085"/><path d="m3 58.6828 26.5 9.0246" stroke="#204e62"/><path d="m1.4691 60.5085c-1.094126-.7534-1.328583-2.2604-.573118-3.3611.748948-1.1007 2.246858-1.3366 3.340978-.5766 1.09413.7535 1.32857 2.2604.57311 3.3612-.80757 1.0417-2.30547 1.3366-3.34097.5765z" fill="#204e62"/><path d="m29.7245 61.9023.7181 3.9205 3.8474-.7782-2.9844 2.5391 2.6345 3.0065-3.7568-1.3313-1.2128 3.7847-.7181-3.9205-3.8995.7759 3.039-2.5966-2.6371-2.9467 3.7048 1.329z" fill="#ffa135"/><path d="m134.574 46.469c0 .6924-.568 1.2644-1.257 1.2644-.688 0-1.256-.572-1.256-1.2644 0-.6925.568-1.2645 1.256-1.2645.689 0 1.257.572 1.257 1.2645z" fill="#204e62"/></svg>

<svg width="136" height="100" viewBox="0 0 136 100" fill="none" xmlns="http://www.w3.org/2000/svg">
<path d="M89.8146 80.2023C88.5677 79.3381 88.2998 77.619 89.1588 76.3645C90.0178 75.1101 91.7266 74.8406 92.9735 75.7048C94.2204 76.569 94.4883 78.2881 93.6293 79.5425C92.7056 80.7319 90.9969 81.0665 89.8146 80.2023Z" fill="#204E62"/>
<path d="M57.5602 94.977C57.5602 96.3709 56.4148 97.5231 55.0294 97.5231C53.6439 97.5231 52.4985 96.3709 52.4985 94.977C52.4985 93.5832 53.6439 92.4309 55.0294 92.4309C56.4148 92.4309 57.5602 93.5832 57.5602 94.977Z" fill="#204E62"/>
<path d="M107.743 54.6016C109.14 54.6016 110.274 53.4617 110.274 52.0555C110.274 50.6493 109.14 49.5094 107.743 49.5094C106.345 49.5094 105.212 50.6493 105.212 52.0555C105.212 53.4617 106.345 54.6016 107.743 54.6016Z" fill="#204E62"/>
<path d="M59.0287 10.268C58.2158 11.4202 56.6549 11.6618 55.5095 10.9277C54.3642 10.11 54.124 8.53959 54.8537 7.38734C55.6666 6.23509 57.2275 5.99349 58.3729 6.72758C59.5182 7.54531 59.7584 9.11572 59.0287 10.268Z" fill="#204E62"/>
<path d="M48.0463 46.3501C48.0463 47.4837 47.1227 48.413 45.9958 48.413C44.869 48.413 43.9453 47.4837 43.9453 46.3501C43.9453 45.2164 44.869 44.2872 45.9958 44.2872C47.1227 44.2872 48.0463 45.2164 48.0463 46.3501Z" fill="#204E62"/>
<path d="M126.133 89.8012L91.6619 77.907L55.1128 95.2094L29.001 68.6333L45.2851 46.694L85.0115 7.55469L56.1842 8.38171" stroke="#204E62" stroke-miterlimit="10"/>
<path d="M134 46.6939L107.327 51.6374L45.2847 46.6939" stroke="#204E62" stroke-miterlimit="10"/>
<path d="M107.327 51.6375L91.6616 77.907" stroke="#204E62" stroke-miterlimit="10"/>
<path d="M93.047 43.5346C92.5205 43.1722 92.4096 42.4566 92.7699 41.927C93.1301 41.3973 93.8413 41.2858 94.3678 41.6482C94.8943 42.0106 95.0051 42.7261 94.6449 43.2558C94.257 43.7576 93.5457 43.897 93.047 43.5346Z" fill="#0C8085"/>
<path d="M72.6807 97.6439C72.6807 98.7683 71.7571 99.6975 70.6394 99.6975C69.5218 99.6975 68.5981 98.7683 68.5981 97.6439C68.5981 96.5196 69.5218 95.5903 70.6394 95.5903C71.7571 95.5903 72.6807 96.5196 72.6807 97.6439Z" fill="#0C8085"/>
<path d="M86.004 20.5913C85.4121 21.4304 84.2753 21.6064 83.4412 21.0718C82.607 20.4762 82.4321 19.3326 82.9636 18.4934C83.5555 17.6543 84.6923 17.4783 85.5264 18.0129C86.3606 18.6085 86.596 19.7521 86.004 20.5913Z" fill="#0C8085"/>
<path d="M60.3311 63.3644L60.9038 65.9105L63.4069 65.2601L61.5227 67.0349L63.333 68.8934L60.8299 68.1314L60.1464 70.6403L59.5645 68.0942L57.0337 68.754L58.9549 66.9699L57.1445 65.1114L59.6015 65.8734L60.3311 63.3644Z" fill="#0C8085"/>
<path d="M21.4637 50.0021L22.0364 52.6411L24.7057 51.9906L22.6829 53.8677L24.5949 55.8284L21.9994 55.0199L21.242 57.6683L20.6324 54.9828L18 55.6704L19.9766 53.7934L18.0739 51.8048L20.7063 52.6039L21.4637 50.0021Z" fill="#0C8085"/>
<path d="M65.5225 36.0734L66.1045 38.6195L68.5983 37.9691L66.7141 39.7532L68.5244 41.6024L66.0306 40.8404L65.3378 43.3493L64.7652 40.8032L62.2251 41.463L64.1463 39.6789L62.3359 37.8204L64.8021 38.5824L65.5225 36.0734Z" fill="#0C8085"/>
<path d="M103.799 73.8927C103.217 73.4931 103.087 72.6846 103.494 72.0992C103.891 71.5138 104.695 71.3837 105.276 71.7926C105.858 72.1922 105.988 73.0006 105.581 73.586C105.147 74.1435 104.353 74.3015 103.799 73.8927Z" fill="#0C8085"/>
<path d="M27.4676 59.982C27.1073 59.7311 27.0334 59.2386 27.2736 58.8669C27.523 58.5045 28.0125 58.4302 28.382 58.6718C28.7422 58.9227 28.8161 59.4152 28.576 59.7869C28.3081 60.1307 27.8093 60.2236 27.4676 59.982Z" fill="#0C8085"/>
<path d="M43.6775 94.3265C43.1972 93.992 43.0956 93.3322 43.4281 92.849C43.7607 92.3658 44.4165 92.2636 44.8968 92.5981C45.3771 92.9327 45.4787 93.5924 45.1461 94.0756C44.7952 94.5309 44.1394 94.661 43.6775 94.3265Z" fill="#0C8085"/>
<path d="M62.0306 15.5554C61.6703 15.3045 61.5964 14.812 61.8366 14.4403C62.086 14.0779 62.5755 14.0035 62.945 14.2451C63.3052 14.496 63.3791 14.9885 63.1389 15.3602C62.8711 15.704 62.3723 15.797 62.0306 15.5554Z" fill="#0C8085"/>
<path d="M124.996 38.619C124.636 38.3681 124.562 37.8756 124.802 37.5039C125.052 37.1415 125.541 37.0671 125.911 37.3087C126.271 37.5596 126.345 38.0521 126.105 38.4238C125.837 38.7676 125.338 38.8606 124.996 38.619Z" fill="#0C8085"/>
<path d="M54.7147 88.8615C54.417 88.656 54.3527 88.2389 54.5571 87.9394C54.7614 87.6398 55.176 87.5752 55.4737 87.7808C55.7715 87.9864 55.8357 88.4034 55.6314 88.703C55.4095 88.9908 55.0008 89.0671 54.7147 88.8615Z" fill="#0C8085"/>
<path d="M54.7147 88.8615C54.417 88.656 54.3527 88.2389 54.5571 87.9394C54.7614 87.6398 55.176 87.5752 55.4737 87.7808C55.7715 87.9864 55.8357 88.4034 55.6314 88.703C55.4095 88.9908 55.0008 89.0671 54.7147 88.8615Z" fill="#0C8085"/>
<path d="M102.727 46.3687C102.478 46.2015 102.422 45.8577 102.598 45.6068C102.764 45.3559 103.106 45.3001 103.355 45.4767C103.605 45.6439 103.66 45.9878 103.484 46.2386C103.3 46.4802 102.958 46.5453 102.727 46.3687Z" fill="#0C8085"/>
<path d="M46.4947 52.6876C46.2453 52.5203 46.1898 52.1765 46.3653 51.9256C46.5316 51.6747 46.8734 51.619 47.1227 51.7955C47.3721 51.9628 47.4275 52.3066 47.2521 52.5575C47.0673 52.7991 46.7256 52.8641 46.4947 52.6876Z" fill="#0C8085"/>
<path d="M82.6099 75.8719C82.3605 75.7047 82.3051 75.3608 82.4806 75.1099C82.6468 74.859 82.9886 74.8033 83.238 74.9799C83.4874 75.1471 83.5428 75.4909 83.3673 75.7418C83.1826 75.9834 82.8408 76.0485 82.6099 75.8719Z" fill="#0C8085"/>
<path d="M134.806 84.5231C134.556 84.3558 134.501 84.012 134.676 83.7611C134.843 83.5102 135.184 83.4545 135.434 83.631C135.683 83.7983 135.739 84.1421 135.563 84.393C135.378 84.6346 135.037 84.6997 134.806 84.5231Z" fill="#0C8085"/>
<path d="M36.3254 69.07C35.9651 68.8284 35.8912 68.3359 36.1406 67.9735C36.3808 67.6111 36.8703 67.5367 37.2305 67.7876C37.5908 68.0292 37.6647 68.5217 37.4153 68.8841C37.1566 69.2279 36.6671 69.3209 36.3254 69.07Z" fill="#0C8085"/>
<path d="M64.1826 11.7548C63.9333 11.5875 63.8778 11.2437 64.0533 10.9928C64.2196 10.7419 64.5613 10.6862 64.8107 10.8627C65.0601 11.03 65.1155 11.3738 64.94 11.6247C64.7553 11.8663 64.4136 11.9313 64.1826 11.7548Z" fill="#0C8085"/>
<path d="M79.6553 6.36711L84.4306 5.62372L83.5623 0.85675L86.5919 4.65732L90.2219 1.57226L88.5316 6.03259L93.0114 7.65875L88.236 8.39284L89.095 13.1691L86.0655 9.36854L82.4355 12.4536L84.1997 7.97469L79.6553 6.36711Z" fill="#FFA135"/>
<path d="M121.062 84.4023L124.978 86.6231L127.02 82.7018L127.112 87.1714L131.536 87.0041L127.712 89.2436L130.012 93.007L126.188 90.8605L124.064 94.7911L124.055 90.3122L119.63 90.4795L123.454 88.2307L121.062 84.4023Z" fill="#FFA135"/>
<path d="M10.608 67.584C10.294 67.3702 10.2201 66.9335 10.4417 66.6083C10.6542 66.2923 11.0883 66.218 11.4116 66.441C11.7256 66.6547 11.7995 67.0915 11.5778 67.4167C11.3469 67.714 10.9128 67.807 10.608 67.584Z" fill="#0C8085"/>
<path d="M3 58.6828L29.5 67.7074" stroke="#204E62"/>
<path d="M1.4691 60.5085C0.374974 59.7551 0.140517 58.2481 0.895982 57.1474C1.64493 56.0467 3.14284 55.8108 4.23696 56.5708C5.33109 57.3243 5.56553 58.8312 4.81007 59.932C4.0025 60.9737 2.5046 61.2686 1.4691 60.5085Z" fill="#204E62"/>
<path d="M29.7245 61.9023L30.4426 65.8228L34.29 65.0446L31.3056 67.5837L33.9401 70.5902L30.1833 69.2589L28.9705 73.0436L28.2524 69.1231L24.3529 69.899L27.3919 67.3024L24.7548 64.3557L28.4596 65.6847L29.7245 61.9023Z" fill="#FFA135"/>
<path d="M134.574 46.469C134.574 47.1614 134.006 47.7334 133.317 47.7334C132.629 47.7334 132.061 47.1614 132.061 46.469C132.061 45.7765 132.629 45.2045 133.317 45.2045C134.006 45.2045 134.574 45.7765 134.574 46.469Z" fill="#204E62"/>
</svg>
